core/schema/show/pipe/ocio/luts/default.cube
# ACES 1.0.3 - Arri AlexaV3LogC 800 to rec709
TITLE "Generated by Foundry::LUT"
LUT_3D_SIZE 32
0.000000 0.000000 0.000000
0.000000 0.000000 0.000000
0.000000 0.000000 0.000000
0.000000 0.000000 0.000000
0.000000 0.000000 0.000000
0.036760 0.000000 0.000000
0.093008 0.000000 0.000000
0.132120 0.000000 0.000000
0.172161 0.000000 0.000000
0.219317 0.000000 0.000000
0.274368 0.000000 0.000000
0.334557 0.000000 0.000000
0.406261 0.000000 0.000000
0.491331 0.000000 0.000000
0.587715 0.000000 0.000000
0.689636 0.000000 0.000000
0.793440 0.000000 0.000000
0.892572 0.000000 0.000000
0.972677 0.000000 0.000000
1.000000 0.000000 0.005132
1.000000 0.000000 0.023613
1.000000 0.127879 0.059601
1.000000 0.317811 0.093213
1.000000 0.445814 0.131574
1.000000 0.559051 0.178131
1.000000 0.663014 0.237753
1.000000 0.747888 0.325045
1.000000 0.811428 0.422388
1.000000 0.859925 0.520848
1.000000 0.906632 0.561295
1.000000 0.939731 0.592930
1.000000 0.961718 0.634208
0.000000 0.000000 0.000000
0.000000 0.000000 0.000000
0.000000 0.000000 0.000000
0.000000 0.000000 0.000000
0.000000 0.000000 0.000000
0.056361 0.000000 0.000000
0.103188 0.000000 0.000000
0.138439 0.000000 0.000000
0.177694 0.000000 0.000000
0.224194 0.000000 0.000000
0.278330 0.000000 0.000000
0.337952 0.000000 0.000000
0.407928 0.000000 0.000000
0.492113 0.000000 0.000000
0.588513 0.000000 0.000000
0.690177 0.000000 0.000000
0.793701 0.000000 0.000000
0.892502 0.000000 0.000000
0.972130 0.000000 0.000000
1.000000 0.000000 0.005364
1.000000 0.000000 0.010522
1.000000 0.170510 0.054358
1.000000 0.332588 0.087050
1.000000 0.454251 0.128000
1.000000 0.564656 0.176668
1.000000 0.666578 0.237156
1.000000 0.749943 0.324264
1.000000 0.812606 0.421969
1.000000 0.860599 0.520583
1.000000 0.906980 0.561067
1.000000 0.939874 0.592795
1.000000 0.961795 0.634086
0.000000 0.000000 0.000000
0.000000 0.000000 0.000000
0.000000 0.000000 0.000000
0.000000 0.000000 0.000000
0.000000 0.000000 0.000000
0.070903 0.000000 0.000000
0.111312 0.000000 0.000000
0.144520 0.000000 0.000000
0.182942 0.000000 0.000000
0.228900 0.000000 0.000000
0.281101 0.000000 0.000000
0.339119 0.000000 0.000000
0.408759 0.000000 0.000000
0.493143 0.000000 0.000000
0.589362 0.000000 0.000000
0.690727 0.000000 0.000000
0.793941 0.000000 0.000000
0.892384 0.000000 0.000000
0.971703 0.000000 0.000000
1.000000 0.000000 0.000000
1.000000 0.012276 0.004210
1.000000 0.198845 0.046623
1.000000 0.345470 0.076246
1.000000 0.462463 0.124692
1.000000 0.570199 0.175221
1.000000 0.670113 0.236565
1.000000 0.751983 0.323463
1.000000 0.813780 0.421537
1.000000 0.861271 0.520314
1.000000 0.907326 0.560836
1.000000 0.940017 0.592658
1.000000 0.961873 0.633964
0.000000 0.000000 0.000000
0.000000 0.000000 0.000000
0.000000 0.002303 0.000000
0.000000 0.012260 0.000000
0.025068 0.016965 0.000000
0.077655 0.002018 0.000000
0.113750 0.000000 0.000000
0.146707 0.000000 0.000000
0.184566 0.000000 0.000000
0.229682 0.000000 0.000000
0.281924 0.000000 0.000000
0.340054 0.000000 0.000000
0.409803 0.000000 0.000000
0.494335 0.000000 0.000000
0.590292 0.000000 0.000000
0.691297 0.000000 0.000000
0.794169 0.000000 0.000000
0.892217 0.000000 0.000000
0.971109 0.000000 0.000000
1.000000 0.000000 0.000000
1.000000 0.035984 0.004289
1.000000 0.224559 0.038725
1.000000 0.358027 0.065986
1.000000 0.470335 0.121903
1.000000 0.575683 0.173791
1.000000 0.673621 0.235978
1.000000 0.754012 0.322704
1.000000 0.814949 0.421094
1.000000 0.861940 0.520044
1.000000 0.907671 0.560628
1.000000 0.940159 0.592520
1.000000 0.961950 0.633841
0.000000 0.051465 0.000000
0.000000 0.054320 0.000000
0.000000 0.057020 0.000000
0.000000 0.059744 0.000000
0.000000 0.061099 0.000000
0.059715 0.060681 0.000000
0.100063 0.058576 0.000000
0.141114 0.053631 0.000000
0.183571 0.043894 0.000000
0.230439 0.019784 0.000000
0.283022 0.000000 0.000000
0.341340 0.000000 0.000000
0.411117 0.000000 0.000000
0.495741 0.000000 0.000000
0.591323 0.000000 0.000000
0.691902 0.000000 0.000000
0.794400 0.000000 0.000000
0.892079 0.000000 0.000000
0.970577 0.000000 0.000000
1.000000 0.000000 0.000000
1.000000 0.060689 0.004170
1.000000 0.247214 0.029722
1.000000 0.369462 0.059939
1.000000 0.478094 0.119155
1.000000 0.581109 0.172378
1.000000 0.677101 0.235397
1.000000 0.756029 0.321901
1.000000 0.816110 0.420640
1.000000 0.862606 0.519771
1.000000 0.908016 0.560427
1.000000 0.940302 0.592380
1.000000 0.962027 0.633716
0.000000 0.081893 0.000000
0.000000 0.084075 0.000000
0.000000 0.086234 0.000000
0.000000 0.088411 0.000000
0.000000 0.089189 0.000000
0.040328 0.089191 0.000000
0.091848 0.088450 0.000000
0.135676 0.086547 0.000000
0.181865 0.082386 0.000000
0.231473 0.075144 0.000000
0.284420 0.060354 0.000000
0.343000 0.017105 0.000000
0.413026 0.000000 0.000000
0.497383 0.000000 0.000000
0.592485 0.000000 0.000000
0.692558 0.000000 0.000000
0.794631 0.000000 0.000000
0.891871 0.000000 0.000000
0.969905 0.000000 0.000000
1.000000 0.002556 0.000000
1.000000 0.107219 0.001662
1.000000 0.266097 0.018777
1.000000 0.380905 0.053894
1.000000 0.485897 0.116394
1.000000 0.586585 0.170951
1.000000 0.680623 0.234809
1.000000 0.758074 0.321111
1.000000 0.817290 0.420191
1.000000 0.863284 0.519497
1.000000 0.908366 0.560222
1.000000 0.940447 0.592236
1.000000 0.962105 0.633588
0.000000 0.113336 0.000000
0.000000 0.115166 0.000000
0.000000 0.117093 0.000000
0.000000 0.118524 0.000000
0.000000 0.119184 0.000000
0.002653 0.119389 0.000000
0.076880 0.119110 0.000000
0.127982 0.118196 0.000000
0.178262 0.116019 0.000000
0.231696 0.111717 0.000000
0.285991 0.104194 0.000000
0.345376 0.091846 0.000000
0.415776 0.057490 0.000000
0.499749 0.017403 0.000000
0.594112 0.000000 0.000000
0.693450 0.000000 0.000000
0.794939 0.000000 0.000000
0.891636 0.000000 0.000000
0.969128 0.000000 0.000000
1.000000 0.027067 0.000000
1.000000 0.157282 0.000000
1.000000 0.289470 0.005236
1.000000 0.395171 0.046367
1.000000 0.495679 0.112936
1.000000 0.593478 0.169157
1.000000 0.685070 0.234068
1.000000 0.760661 0.320069
1.000000 0.818786 0.419651
1.000000 0.864144 0.519183
1.000000 0.908811 0.559958
1.000000 0.940631 0.592049
1.000000 0.962205 0.633424
0.000000 0.149962 0.000000
0.000000 0.151551 0.000000
0.000000 0.153041 0.000000
0.000000 0.153886 0.000000
0.000000 0.154489 0.000000
0.000000 0.154834 0.000000
0.030592 0.154928 0.000000
0.113083 0.154567 0.000000
0.170283 0.153285 0.000000
0.227886 0.150389 0.000000
0.286096 0.144926 0.000000
0.348614 0.137156 0.000000
0.419665 0.125213 0.000000
0.503252 0.103409 0.000000
0.596505 0.058164 0.000000
0.694786 0.000000 0.000000
0.795428 0.000000 0.000000
0.891195 0.000000 0.000000
0.967906 0.019494 0.000000
1.000000 0.078225 0.000000
1.000000 0.211109 0.000000
1.000000 0.316537 0.000000
1.000000 0.413907 0.036495
1.000000 0.508613 0.108367
1.000000 0.602642 0.166775
1.000000 0.691006 0.233079
1.000000 0.764125 0.318689
1.000000 0.820795 0.418886
1.000000 0.865301 0.518745
1.000000 0.909408 0.559593
1.000000 0.940880 0.591792
1.000000 0.962340 0.633198
0.000000 0.193432 0.000000
0.000000 0.194868 0.000000
0.000000 0.195618 0.000000
0.000000 0.196285 0.000000
0.000000 0.196744 0.000000
0.000000 0.197028 0.000000
0.000000 0.197160 0.000000
0.069267 0.196997 0.000000
0.152858 0.195833 0.000000
0.217422 0.193354 0.000000
0.281879 0.189290 0.000000
0.349935 0.183508 0.000000
0.424390 0.175986 0.000000
0.508176 0.163621 0.000000
0.600088 0.147295 0.000000
0.696818 0.116649 0.000000
0.796195 0.090156 0.000000
0.890540 0.070789 0.000000
0.966219 0.087901 0.000000
1.000000 0.171539 0.000000
1.000000 0.262642 0.000000
1.000000 0.348462 0.000000
1.000000 0.436215 0.035435
1.000000 0.525568 0.102082
1.000000 0.614761 0.163629
1.000000 0.698897 0.231768
1.000000 0.768746 0.316805
1.000000 0.823481 0.417827
1.000000 0.866854 0.518128
1.000000 0.910070 0.559147
1.000000 0.941214 0.591437
1.000000 0.962521 0.632892
0.000000 0.242324 0.000000
0.000000 0.242761 0.000000
0.000000 0.243173 0.000000
0.000000 0.243606 0.000000
0.000000 0.243880 0.000000
0.000000 0.244029 0.000000
0.000000 0.244033 0.000000
0.003888 0.243810 0.000000
0.111513 0.243058 0.000000
0.196838 0.241511 0.000000
0.270394 0.238810 0.000000
0.345603 0.234477 0.000000
0.426616 0.228532 0.000000
0.513984 0.220566 0.000000
0.604977 0.211414 0.000000
0.699819 0.200459 0.000000
0.797324 0.190232 0.000000
0.889553 0.187145 0.000000
0.963755 0.207776 0.000000
1.000000 0.251891 0.000000
1.000000 0.314700 0.000000
1.000000 0.386679 0.000000
1.000000 0.463570 0.019315
1.000000 0.545652 0.083659
1.000000 0.630386 0.159291
1.000000 0.709334 0.230037
1.000000 0.774887 0.314240
1.000000 0.827066 0.416426
1.000000 0.868844 0.517272
1.000000 0.910958 0.558516
1.000000 0.941664 0.590941
1.000000 0.962765 0.632522
0.000000 0.296568 0.000000
0.000000 0.297012 0.000000
0.000000 0.297433 0.000000
0.000000 0.297773 0.000000
0.000000 0.298012 0.000000
0.000000 0.298175 0.000000
0.000000 0.298262 0.000000
0.000000 0.298216 0.000000
0.029523 0.297839 0.000000
0.157927 0.296942 0.000000
0.248102 0.295146 0.000000
0.333120 0.292481 0.000000
0.422283 0.287993 0.000000
0.516894 0.282346 0.000000
0.610086 0.276713 0.000000
0.703604 0.271258 0.000000
0.798691 0.267524 0.000000
0.887952 0.270565 0.000000
0.960081 0.288192 0.000000
1.000000 0.322313 0.000000
1.000000 0.370339 0.000000
1.000000 0.429722 0.000000
1.000000 0.497849 0.000000
1.000000 0.571160 0.064756
1.000000 0.648187 0.153360
1.000000 0.721441 0.228470
1.000000 0.782255 0.312568
1.000000 0.831417 0.414634
1.000000 0.871233 0.516250
1.000000 0.912146 0.557647
1.000000 0.942267 0.590251
1.000000 0.963092 0.632004
0.000000 0.361615 0.000000
0.000000 0.361995 0.000000
0.000000 0.362333 0.000000
0.000000 0.362607 0.000000
0.000000 0.362818 0.000000
0.000000 0.362980 0.000000
0.000000 0.363103 0.000000
0.000000 0.363155 0.000000
0.000000 0.362997 0.000000
0.064086 0.362500 0.000000
0.206440 0.361832 0.000000
0.307229 0.360284 0.000000
0.409041 0.357812 0.000000
0.511654 0.353832 0.000000
0.611215 0.349559 0.000000
0.706508 0.347114 0.000000
0.799972 0.346435 0.000000
0.885550 0.351352 0.000000
0.954942 0.366244 0.000000
0.999517 0.392779 0.000000
1.000000 0.430844 0.000000
1.000000 0.479758 0.000000
1.000000 0.537409 0.000000
1.000000 0.603154 0.046221
1.000000 0.671150 0.145660
1.000000 0.735539 0.226456
1.000000 0.791142 0.312661
1.000000 0.836999 0.412271
1.000000 0.874404 0.514796
1.000000 0.913732 0.556565
1.000000 0.943073 0.589361
1.000000 0.963532 0.631335
0.000000 0.439185 0.000000
0.000000 0.439515 0.000000
0.000000 0.439795 0.000000
0.000000 0.440035 0.000000
0.000000 0.440259 0.000000
0.000000 0.440416 0.000000
0.000000 0.440587 0.000000
0.000000 0.440799 0.000000
0.000000 0.440972 0.000000
0.000000 0.441026 0.000000
0.098347 0.440861 0.000000
0.262210 0.440166 0.000000
0.380280 0.438436 0.000000
0.494783 0.435599 0.000000
0.602594 0.432063 0.000000
0.704666 0.429462 0.000000
0.799571 0.428991 0.000000
0.882092 0.433361 0.000000
0.948410 0.445085 0.000000
0.994833 0.465752 0.000000
1.000000 0.495983 0.000000
1.000000 0.535747 0.000000
1.000000 0.584103 0.000000
1.000000 0.639810 0.017243
1.000000 0.698783 0.136134
1.000000 0.753711 0.223885
1.000000 0.801861 0.312925
1.000000 0.844019 0.409099
1.000000 0.878597 0.512851
1.000000 0.915840 0.554987
1.000000 0.944150 0.588179
1.000000 0.964121 0.630383
0.000000 0.525313 0.000000
0.000000 0.525541 0.000000
0.000000 0.525755 0.000000
0.000000 0.525908 0.000000
0.000000 0.526074 0.000000
0.000000 0.526174 0.000000
0.000000 0.526322 0.000000
0.000000 0.526413 0.000000
0.000000 0.526475 0.000000
0.000000 0.526446 0.000000
0.000000 0.526211 0.000000
0.156762 0.525537 0.000000
0.337486 0.524084 0.000000
0.465271 0.521706 0.000000
0.583567 0.518722 0.000000
0.693809 0.515661 0.000000
0.794617 0.514227 0.000000
0.876630 0.517029 0.000000
0.939820 0.526130 0.000000
0.989629 0.541959 0.000000
1.000000 0.565627 0.000000
1.000000 0.597399 0.000000
1.000000 0.637049 0.000000
1.000000 0.681655 0.000000
1.000000 0.728701 0.124272
1.000000 0.774198 0.222057
1.000000 0.815680 0.313290
1.000000 0.852486 0.406496
1.000000 0.883845 0.510275
1.000000 0.918629 0.552872
1.000000 0.945581 0.586477
1.000000 0.964907 0.629080
0.000000 0.614439 0.000000
0.000000 0.614564 0.000000
0.000000 0.614665 0.000000
0.000000 0.614733 0.000000
0.000000 0.614806 0.000000
0.000000 0.614842 0.000000
0.000000 0.614880 0.000000
0.000000 0.614890 0.000000
0.000000 0.614856 0.000000
0.000000 0.614709 0.000000
0.000000 0.614354 0.000000
0.014814 0.613591 0.000000
0.256398 0.612209 0.000000
0.424768 0.610146 0.000000
0.553750 0.607406 0.000000
0.673390 0.604397 0.000000
0.781121 0.601957 0.000000
0.866221 0.602967 0.000000
0.928686 0.609158 0.000000
0.977034 0.620996 0.000000
1.000000 0.638754 0.000000
1.000000 0.663140 0.000000
1.000000 0.692712 0.000000
1.000000 0.725925 0.000000
1.000000 0.761077 0.112264
1.000000 0.796830 0.220701
1.000000 0.830962 0.314898
1.000000 0.862806 0.408324
1.000000 0.890224 0.506929
1.000000 0.922293 0.550006
1.000000 0.947474 0.584242
1.000000 0.965952 0.627282
0.000000 0.703914 0.000000
0.000000 0.703963 0.000000
0.000000 0.703963 0.000000
0.000000 0.703964 0.000000
0.000000 0.703960 0.000000
0.000000 0.703953 0.000000
0.000000 0.703900 0.000000
0.000000 0.703828 0.000000
0.000000 0.703685 0.000000
0.000000 0.703438 0.000000
0.000000 0.702928 0.000000
0.000000 0.702059 0.000000
0.148252 0.700669 0.000000
0.367851 0.698755 0.000000
0.516295 0.696238 0.000000
0.643926 0.693099 0.000000
0.758113 0.690054 0.000000
0.847695 0.689087 0.000000
0.913138 0.692220 0.000000
0.961936 0.699118 0.000000
0.996773 0.710886 0.000000
1.000000 0.726328 0.000000
1.000000 0.746156 0.000000
1.000000 0.769260 0.000000
1.000000 0.794370 0.102330
1.000000 0.821036 0.221717
1.000000 0.848711 0.317509
1.000000 0.874308 0.411289
1.000000 0.897822 0.504292
1.000000 0.926912 0.546062
1.000000 0.949963 0.581074
1.000000 0.967334 0.624810
0.000000 0.784961 0.000000
0.000000 0.784899 0.000000
0.000000 0.784825 0.000000
0.000000 0.784741 0.000000
0.000000 0.784665 0.000000
0.000000 0.784595 0.000000
0.000000 0.784460 0.000000
0.000000 0.784251 0.000000
0.000000 0.783985 0.000000
0.000000 0.783516 0.000000
0.000000 0.782847 0.000000
0.000000 0.781714 0.000000
0.027171 0.780124 0.000000
0.275506 0.777997 0.000000
0.479330 0.775308 0.000000
0.615561 0.771633 0.000000
0.733197 0.767787 0.000000
0.825541 0.765313 0.000000
0.894152 0.765196 0.000000
0.945707 0.768315 0.000000
0.982670 0.773630 0.000000
1.000000 0.783215 0.000000
1.000000 0.794579 0.000000
1.000000 0.809451 0.000000
1.000000 0.826993 0.100365
1.000000 0.846511 0.225729
1.000000 0.867049 0.322640
1.000000 0.887266 0.415733
1.000000 0.906889 0.507918
1.000000 0.931954 0.541147
1.000000 0.952890 0.577082
1.000000 0.969094 0.621508
0.000000 0.848228 0.000000
0.000000 0.848085 0.000000
0.000000 0.847936 0.000000
0.000000 0.847793 0.000000
0.000000 0.847655 0.000000
0.000000 0.847521 0.000000
0.000000 0.847340 0.000000
0.000000 0.847016 0.000000
0.000000 0.846569 0.000000
0.000000 0.846015 0.000000
0.000000 0.845056 0.000000
0.000000 0.843826 0.000000
0.000000 0.842060 0.000000
0.246952 0.839720 0.000000
0.455601 0.836588 0.000000
0.599378 0.832755 0.000000
0.714504 0.828697 0.000000
0.806744 0.825345 0.000000
0.876549 0.823536 0.000000
0.929953 0.823587 0.000000
0.968891 0.825797 0.000000
0.996870 0.830230 0.000000
1.000000 0.837533 0.000000
1.000000 0.846730 0.000000
1.000000 0.858127 0.113745
1.000000 0.871401 0.235067
1.000000 0.885857 0.330852
1.000000 0.901292 0.422359
1.000000 0.917011 0.513147
1.000000 0.938328 0.541848
1.000000 0.956465 0.571660
1.000000 0.971103 0.617267
0.000000 0.896461 0.000000
0.000000 0.896267 0.000000
0.000000 0.896079 0.000000
0.000000 0.895894 0.000000
0.000000 0.895713 0.000000
0.000000 0.895533 0.000000
0.000000 0.895309 0.000000
0.000000 0.894929 0.000000
0.000000 0.894359 0.000000
0.000000 0.893624 0.000000
0.000000 0.892657 0.000000
0.000000 0.891234 0.000000
0.046021 0.889408 0.000000
0.270341 0.887002 0.000000
0.458664 0.883878 0.000000
0.596369 0.880076 0.000000
0.706454 0.876134 0.000000
0.792734 0.872673 0.000000
0.861493 0.870101 0.000000
0.915808 0.868739 0.000000
0.955732 0.869092 0.000000
0.986912 0.870458 0.000000
1.000000 0.873954 0.000000
1.000000 0.879238 0.000000
1.000000 0.886145 0.144426
1.000000 0.894545 0.251822
1.000000 0.904616 0.343408
1.000000 0.916019 0.431893
1.000000 0.928247 0.520487
1.000000 0.945191 0.548295
1.000000 0.960964 0.567997
1.000000 0.973695 0.611331
0.000000 0.931858 0.000000
0.000000 0.931631 0.000000
0.000000 0.931408 0.000000
0.000000 0.931188 0.000000
0.000000 0.930971 0.000000
0.000000 0.930753 0.000000
0.000000 0.930479 0.000000
0.000000 0.930055 0.000000
0.000000 0.929468 0.000000
0.000000 0.928702 0.000000
0.000000 0.927713 0.000000
0.024603 0.926343 0.000000
0.154341 0.924539 0.000000
0.333703 0.922181 0.000000
0.490335 0.919206 0.000000
0.609445 0.915658 0.000000
0.707961 0.911984 0.000000
0.787627 0.908643 0.000000
0.852258 0.905806 0.000000
0.904046 0.903781 0.000000
0.944951 0.902742 0.000000
0.976917 0.902669 0.000000
0.998671 0.903830 0.000000
1.000000 0.906591 0.046374
1.000000 0.910594 0.184462
1.000000 0.916188 0.276899
1.000000 0.922938 0.361545
1.000000 0.930877 0.445422
1.000000 0.939727 0.530698
1.000000 0.952996 0.556872
1.000000 0.965751 0.576929
1.000000 0.976817 0.603142
0.000000 0.957901 0.000000
0.000000 0.957675 0.000000
0.000000 0.957451 0.000000
0.000000 0.957229 0.000000
0.000000 0.957010 0.000000
0.000000 0.956787 0.000000
0.000000 0.956470 0.000000
0.000000 0.956049 0.000000
0.006653 0.955490 0.000000
0.041220 0.954751 0.000000
0.086502 0.953786 0.000000
0.153362 0.952518 0.000000
0.283428 0.950776 0.000000
0.424181 0.948607 0.000000
0.538573 0.945863 0.000000
0.637108 0.942742 0.000000
0.719308 0.939545 0.000000
0.788982 0.936522 0.000000
0.848505 0.933795 0.000000
0.896994 0.931594 0.000000
0.935571 0.930138 0.000000
0.967903 0.929323 0.000000
0.992810 0.929187 0.000000
1.000000 0.930179 0.128691
1.000000 0.932439 0.232976
1.000000 0.935509 0.310269
1.000000 0.939780 0.386375
1.000000 0.945071 0.464157
1.000000 0.951156 0.544762
1.000000 0.961274 0.568576
1.000000 0.971233 0.588560
1.000000 0.980217 0.614220
0.000000 0.977080 0.000000
0.000000 0.976868 0.000000
0.000000 0.976656 0.000000
0.006927 0.976434 0.000000
0.019598 0.976203 0.000000
0.032443 0.975969 0.000000
0.048689 0.975673 0.000000
0.070424 0.975278 0.000000
0.099406 0.974751 0.000000
0.149259 0.974064 0.000000
0.231775 0.973176 0.000000
0.339939 0.972015 0.000000
0.437428 0.970452 0.000000
0.524231 0.968499 0.000000
0.600089 0.966217 0.000000
0.673121 0.963625 0.000000
0.739464 0.960935 0.000000
0.797495 0.958305 0.000000
0.849514 0.955806 0.000000
0.893323 0.953679 0.000000
0.929801 0.951978 0.000000
0.960410 0.950778 0.000000
0.985298 0.950006 0.123659
1.000000 0.949886 0.214605
1.000000 0.950663 0.285110
1.000000 0.952309 0.351601
1.000000 0.954770 0.418357
1.000000 0.958053 0.489038
1.000000 0.962203 0.563705
1.000000 0.969574 0.584442
1.000000 0.977037 0.603859
1.000000 0.984017 0.628497
0.220226 0.990324 0.000000
0.237099 0.990119 0.000000
0.253892 0.989915 0.000000
0.270602 0.989712 0.000000
0.287232 0.989511 0.000000
0.304116 0.989306 0.000000
0.325509 0.989046 0.000000
0.354194 0.988698 0.000000
0.392558 0.988233 0.000000
0.443705 0.987613 0.000000
0.485376 0.986857 0.000000
0.520625 0.985912 0.000000
0.564110 0.984688 0.000000
0.612024 0.983149 0.000000
0.665255 0.981323 0.000000
0.714194 0.979365 0.000000
0.765108 0.977183 0.000000
0.812849 0.974950 0.036964
0.855596 0.972819 0.062071
0.893520 0.970886 0.090842
0.927189 0.969182 0.124751
0.955512 0.967831 0.173011
0.979197 0.966777 0.227215
0.997500 0.966154 0.282465
1.000000 0.966093 0.339733
1.000000 0.966754 0.397851
1.000000 0.967961 0.457608
1.000000 0.969935 0.520546
1.000000 0.972402 0.588418
1.000000 0.977491 0.605339
1.000000 0.982825 0.623635
1.000000 0.988117 0.646245
0.525525 0.997478 0.203219
0.531006 0.997418 0.203407
0.536467 0.997359 0.203594
0.541909 0.997300 0.203781
0.547330 0.997241 0.203967
0.552842 0.997181 0.204157
0.559837 0.997105 0.204398
0.569233 0.997004 0.204722
0.581830 0.996867 0.205158
0.598680 0.996684 0.205743
0.621144 0.996441 0.206525
0.641625 0.995874 0.207935
0.664722 0.995023 0.209960
0.690144 0.993999 0.212114
0.722774 0.992679 0.214899
0.759344 0.991133 0.219182
0.793771 0.989516 0.224572
0.831571 0.987686 0.232003
0.866119 0.985918 0.241054
0.897508 0.984249 0.253467
0.926986 0.982666 0.269077
0.953080 0.981284 0.288486
0.974779 0.980136 0.313899
0.993349 0.979242 0.352284
1.000000 0.978749 0.397555
1.000000 0.978696 0.448058
1.000000 0.979178 0.501989
1.000000 0.980000 0.558873
1.000000 0.981504 0.618412
1.000000 0.984778 0.631598
1.000000 0.988452 0.647853
1.000000 0.992303 0.667204
0.667942 1.000000 0.337461
0.670588 1.000000 0.337573
0.673227 1.000000 0.337685
0.675860 1.000000 0.337796
0.678486 1.000000 0.337907
0.681157 1.000000 0.338020
0.684549 1.000000 0.338164
0.689115 1.000000 0.338358
0.695246 1.000000 0.338619
0.703468 1.000000 0.338969
0.714465 1.000000 0.339438
0.729125 1.000000 0.340067
0.742624 0.999582 0.341058
0.757386 0.999325 0.342356
0.776023 0.999160 0.344046
0.800233 0.998948 0.346260
0.826661 0.998264 0.349374
0.851338 0.996985 0.353525
0.878514 0.995552 0.359084
0.905299 0.994089 0.366346
0.929757 0.992712 0.376113
0.952403 0.991404 0.388654
0.972370 0.990262 0.404732
0.989357 0.989324 0.426793
0.999996 0.988619 0.460714
1.000000 0.988215 0.502802
1.000000 0.988153 0.550528
1.000000 0.988434 0.602063
1.000000 0.989163 0.651263
1.000000 0.991350 0.661999
1.000000 0.993744 0.675071
1.000000 0.996356 0.690638
0.761155 1.000000 0.448572
0.762569 1.000000 0.448649
0.763981 1.000000 0.448727
0.765389 1.000000 0.448805
0.766796 1.000000 0.448882
0.768227 1.000000 0.448961
0.770048 1.000000 0.449061
0.772499 1.000000 0.449196
0.775796 1.000000 0.449378
0.780225 1.000000 0.449623
0.786164 1.000000 0.449952
0.794107 1.000000 0.450393
0.804699 1.000000 0.450982
0.813358 1.000000 0.451874
0.823777 1.000000 0.453065
0.837434 1.000000 0.454638
0.855197 1.000000 0.456694
0.874047 1.000000 0.459514
0.893348 1.000000 0.463330
0.914131 0.999967 0.468396
0.935003 0.999890 0.475061
0.953813 0.998679 0.484062
0.971301 0.997812 0.495748
0.986693 0.996991 0.510822
0.998334 0.996247 0.531445
1.000000 0.995682 0.563168
1.000000 0.995337 0.603417
1.000000 0.995277 0.648811
1.000000 0.995581 0.685814
1.000000 0.996871 0.693847
1.000000 0.998294 0.703854
1.000000 0.999754 0.716074
0.826715 1.000000 0.552352
0.827487 1.000000 0.552408
0.828257 1.000000 0.552464
0.829027 1.000000 0.552519
0.829795 1.000000 0.552575
0.830578 1.000000 0.552631
0.831573 1.000000 0.552703
0.832915 1.000000 0.552801
0.834722 1.000000 0.552931
0.837153 1.000000 0.553108
0.840418 1.000000 0.553345
0.844795 1.000000 0.553663
0.850595 1.000000 0.554089
0.857313 1.000000 0.554656
0.863554 1.000000 0.555512
0.871660 1.000000 0.556653
0.882289 1.000000 0.558159
0.896097 1.000000 0.560132
0.910044 1.000000 0.562837
0.925212 1.000000 0.566498
0.940904 1.000000 0.571346
0.956832 1.000000 0.577719
0.971567 1.000000 0.586316
0.984979 1.000000 0.597489
0.996399 1.000000 0.611896
1.000000 0.999932 0.631406
1.000000 0.999744 0.660635
1.000000 0.999759 0.696511
1.000000 1.000000 0.720191
1.000000 1.000000 0.726107
1.000000 1.000000 0.733690
1.000000 1.000000 0.736428
0.882746 1.000000 0.641913
0.883187 1.000000 0.641944
0.883629 1.000000 0.641975
0.884070 1.000000 0.642005
0.884510 1.000000 0.642036
0.884959 1.000000 0.642067
0.885530 1.000000 0.642107
0.886300 1.000000 0.642161
0.887338 1.000000 0.642233
0.888735 1.000000 0.642330
0.890616 1.000000 0.642461
0.892864 1.000000 0.642645
0.894936 1.000000 0.642918
0.897710 1.000000 0.643283
0.901409 1.000000 0.643770
0.906321 1.000000 0.644418
0.912810 1.000000 0.645272
0.921322 1.000000 0.646394
0.931175 1.000000 0.647918
0.940708 1.000000 0.650050
0.952800 1.000000 0.652755
