core/schema/show/pipe/ocio/luts/default.cube
# ACES 1.0.3 - Arri AlexaV3LogC 800 to rec709
TITLE "Generated by Foundry::LUT"
LUT_3D_SIZE 5
DOMAIN_MIN 0.000000 0.000000 0.000000
DOMAIN_MAX 0.903226 0.903226 0.903226
0.000000 0.000000 0.000000
0.132120 0.000000 0.000000
0.587715 0.000000 0.000000
1.000000 0.127879 0.059601
1.000000 0.859925 0.520848
0.000000 0.149962 0.000000
0.113083 0.154567 0.000000
0.596505 0.058164 0.000000
1.000000 0.316537 0.000000
1.000000 0.865301 0.518745
0.000000 0.614439 0.000000
0.000000 0.614890 0.000000
0.553750 0.607406 0.000000
1.000000 0.663140 0.000000
1.000000 0.890224 0.506929
0.000000 0.977080 0.000000
0.070424 0.975278 0.000000
0.600089 0.966217 0.000000
0.960410 0.950778 0.000000
1.000000 0.962203 0.563705
0.952492 1.000000 0.652686
0.953421 1.000000 0.652943
0.958048 1.000000 0.654544
0.985050 1.000000 0.666733
1.000000 1.000000 0.736428
0.000000 0.000000 0.139516
0.111907 0.000000 0.139489
0.590344 0.000000 0.139589
1.000000 0.073584 0.198329
1.000000 0.858688 0.564756
0.000000 0.124886 0.127009
0.123790 0.123790 0.123790
0.594476 0.000000 0.127164
1.000000 0.296159 0.179320
1.000000 0.864123 0.562942
0.000000 0.608771 0.000000
0.000000 0.609116 0.000000
0.562647 0.601488 0.000000
1.000000 0.658953 0.000000
1.000000 0.889399 0.552584
0.000000 0.976691 0.000000
0.082617 0.974878 0.000000
0.605473 0.965905 0.000000
0.960732 0.950632 0.000000
1.000000 0.962138 0.563645
0.952625 1.000000 0.652716
0.953517 1.000000 0.652976
0.958141 1.000000 0.654576
0.985090 1.000000 0.666763
1.000000 1.000000 0.736428
0.000000 0.000000 0.580448
0.000000 0.000000 0.580765
0.592897 0.000000 0.577524
1.000000 0.000000 0.597779
1.000000 0.851068 0.735212
0.000000 0.000000 0.577952
0.000000 0.000000 0.578279
0.607383 0.000000 0.574806
1.000000 0.012065 0.593773
1.000000 0.856839 0.734257
0.000000 0.549962 0.542014
0.000000 0.551230 0.542461
0.544310 0.544309 0.544311
1.000000 0.615100 0.565083
1.000000 0.884406 0.728822
0.000000 0.974933 0.389576
0.084825 0.973155 0.390661
0.604235 0.964192 0.397445
0.956744 0.949021 0.453664
1.000000 0.961040 0.693746
0.953315 1.000000 0.652906
0.954095 1.000000 0.653176
0.958698 1.000000 0.654769
0.985330 1.000000 0.666948
1.000000 1.000000 0.736428
0.000000 0.000000 0.986515
0.000000 0.000000 0.986525
0.000000 0.000000 0.986111
1.000000 0.000000 0.972634
1.000000 0.748247 0.955267
0.000000 0.000000 0.986436
0.000000 0.000000 0.986446
0.000000 0.000000 0.985895
1.000000 0.000000 0.972547
1.000000 0.764629 0.954287
0.000000 0.000000 0.985956
0.000000 0.000000 0.985966
0.249127 0.000000 0.983592
1.000000 0.000000 0.972016
1.000000 0.829686 0.950014
0.000000 0.966202 0.935932
0.000000 0.964705 0.935795
0.207517 0.954088 0.934880
0.933789 0.933788 0.933788
1.000000 0.952564 0.939505
0.939436 1.000000 0.895446
0.940314 1.000000 0.895488
0.945497 1.000000 0.895731
0.973259 1.000000 0.897731
1.000000 1.000000 0.908598
0.000000 0.062951 1.000000
0.000000 0.062955 1.000000
0.000000 0.062980 1.000000
1.000000 0.000000 1.000000
1.000000 0.340477 1.000000
0.000000 0.062953 1.000000
0.000000 0.062957 1.000000
0.000000 0.062981 1.000000
1.000000 0.000000 1.000000
1.000000 0.340477 1.000000
0.000000 0.062961 1.000000
0.000000 0.062965 1.000000
0.000000 0.062989 1.000000
1.000000 0.000000 1.000000
1.000000 0.340477 1.000000
0.288976 0.019551 1.000000
0.328015 0.013686 1.000000
0.574252 0.000000 1.000000
1.000000 0.000000 1.000000
1.000000 0.408239 1.000000
0.912788 1.000000 1.000000
0.913934 1.000000 1.000000
0.920726 1.000000 1.000000
0.959501 1.000000 1.000000
1.000000 1.000000 1.000000
