core/schema/show/pipe/ocio/luts/default.cube
# ACES 1.0.3 - Arri AlexaV3LogC 800 to rec709
TITLE "Generated by Foundry::LUT"
LUT_3D_SIZE 8
DOMAIN_MIN 0.000000 0.000000 0.000000
DOMAIN_MAX 0.903226 0.903226 0.903226
0.000000 0.000000 0.000000
0.000000 0.000000 0.000000
0.172161 0.000000 0.000000
0.406261 0.000000 0.000000
0.793440 0.000000 0.000000
1.000000 0.000000 0.023613
1.000000 0.559051 0.178131
1.000000 0.859925 0.520848
0.000000 0.051465 0.000000
0.000000 0.061099 0.000000
0.183571 0.043894 0.000000
0.411117 0.000000 0.000000
0.794400 0.000000 0.000000
1.000000 0.060689 0.004170
1.000000 0.581109 0.172378
1.000000 0.862606 0.519771
0.000000 0.193432 0.000000
0.000000 0.196744 0.000000
0.152858 0.195833 0.000000
0.424390 0.175986 0.000000
0.796195 0.090156 0.000000
1.000000 0.262642 0.000000
1.000000 0.614761 0.163629
1.000000 0.866854 0.518128
0.000000 0.439185 0.000000
0.000000 0.440259 0.000000
0.000000 0.440972 0.000000
0.380280 0.438436 0.000000
0.799571 0.428991 0.000000
1.000000 0.495983 0.000000
1.000000 0.698783 0.136134
1.000000 0.878597 0.512851
0.000000 0.784961 0.000000
0.000000 0.784665 0.000000
0.000000 0.783985 0.000000
0.027171 0.780124 0.000000
0.733197 0.767787 0.000000
0.982670 0.773630 0.000000
1.000000 0.826993 0.100365
1.000000 0.906889 0.507918
0.000000 0.957901 0.000000
0.000000 0.957010 0.000000
0.006653 0.955490 0.000000
0.283428 0.950776 0.000000
0.719308 0.939545 0.000000
0.935571 0.930138 0.000000
1.000000 0.932439 0.232976
1.000000 0.951156 0.544762
0.667942 1.000000 0.337461
0.678486 1.000000 0.337907
0.695246 1.000000 0.338619
0.742624 0.999582 0.341058
0.826661 0.998264 0.349374
0.929757 0.992712 0.376113
0.999996 0.988619 0.460714
1.000000 0.989163 0.651263
0.952492 1.000000 0.652686
0.953026 1.000000 0.652806
0.953651 1.000000 0.653022
0.955689 1.000000 0.653727
0.962240 1.000000 0.655995
0.978958 1.000000 0.663238
1.000000 1.000000 0.685569
1.000000 1.000000 0.736428
0.000000 0.000000 0.051810
0.000000 0.000000 0.052044
0.175176 0.000000 0.052642
0.408144 0.000000 0.053897
0.795112 0.000000 0.059577
1.000000 0.000000 0.101816
1.000000 0.554836 0.231202
1.000000 0.859314 0.543332
0.000000 0.032829 0.043548
0.042421 0.042421 0.042422
0.190681 0.000000 0.044841
0.414330 0.000000 0.042822
0.795824 0.000000 0.033205
1.000000 0.043936 0.080298
1.000000 0.577252 0.223949
1.000000 0.862008 0.542421
0.000000 0.185730 0.000000
0.000000 0.188723 0.000000
0.169749 0.187367 0.000000
0.427447 0.165932 0.000000
0.797515 0.066382 0.000000
1.000000 0.252145 0.006353
1.000000 0.611409 0.211886
1.000000 0.866281 0.540871
0.000000 0.435265 0.000000
0.000000 0.436241 0.000000
0.000000 0.436748 0.000000
0.390539 0.434025 0.000000
0.801614 0.424847 0.000000
1.000000 0.492856 0.000000
1.000000 0.697153 0.168852
1.000000 0.878113 0.535915
0.000000 0.783807 0.000000
0.000000 0.783501 0.000000
0.000000 0.782797 0.000000
0.029917 0.778882 0.000000
0.735885 0.766693 0.000000
0.983085 0.772827 0.000000
1.000000 0.826557 0.100552
1.000000 0.906656 0.520689
0.000000 0.957652 0.000000
0.000000 0.956765 0.000000
0.013873 0.955238 0.000000
0.291316 0.950536 0.000000
0.720930 0.939367 0.000000
0.935843 0.930014 0.000000
1.000000 0.932358 0.232908
1.000000 0.951106 0.544733
0.669542 1.000000 0.337370
0.680070 1.000000 0.337816
0.696810 1.000000 0.338527
0.743536 0.999541 0.340980
0.827099 0.998228 0.349296
0.929920 0.992691 0.376045
0.999996 0.988606 0.460698
1.000000 0.989155 0.651221
0.952558 1.000000 0.652701
0.953074 1.000000 0.652822
0.953698 1.000000 0.653038
0.955736 1.000000 0.653744
0.962284 1.000000 0.656010
0.978986 1.000000 0.663253
1.000000 1.000000 0.685582
1.000000 1.000000 0.736428
0.000000 0.000000 0.178877
0.000000 0.000000 0.179043
0.155355 0.000000 0.178730
0.416619 0.000000 0.175330
0.795290 0.000000 0.182306
1.000000 0.000000 0.215930
1.000000 0.546807 0.313890
1.000000 0.858325 0.576421
0.000000 0.000000 0.175219
0.000000 0.000000 0.175535
0.180736 0.000000 0.174811
0.418513 0.000000 0.171762
0.797057 0.000000 0.178087
1.000000 0.000000 0.209094
1.000000 0.569948 0.308979
1.000000 0.861040 0.575595
0.000000 0.163069 0.163568
0.000000 0.165117 0.163331
0.159702 0.159701 0.159702
0.413016 0.142507 0.162019
0.794656 0.021497 0.167047
1.000000 0.224447 0.195984
1.000000 0.604735 0.300771
1.000000 0.865345 0.574222
0.000000 0.424094 0.074811
0.000000 0.425196 0.076342
0.000000 0.425793 0.078551
0.391935 0.422822 0.081014
0.796993 0.414460 0.089805
1.000000 0.483477 0.134873
1.000000 0.693113 0.275010
1.000000 0.877331 0.569633
0.000000 0.781655 0.000000
0.000000 0.781349 0.000000
0.000000 0.780591 0.000000
0.000000 0.776659 0.000000
0.738945 0.764652 0.000000
0.983360 0.771194 0.000000
1.000000 0.825463 0.200669
1.000000 0.906143 0.555984
0.000000 0.957252 0.000000
0.000000 0.956363 0.000000
0.025472 0.954832 0.000000
0.303982 0.950150 0.000000
0.723538 0.939079 0.000000
0.936281 0.929814 0.000000
1.000000 0.932227 0.232799
1.000000 0.951027 0.544687
0.672115 1.000000 0.337223
0.682621 1.000000 0.337668
0.699326 1.000000 0.338378
0.745003 0.999475 0.340852
0.827804 0.998171 0.349170
0.930184 0.992657 0.375931
0.999996 0.988586 0.460672
1.000000 0.989141 0.651155
0.952665 1.000000 0.652724
0.953151 1.000000 0.652849
0.953775 1.000000 0.653065
0.955811 1.000000 0.653770
0.962356 1.000000 0.656035
0.979031 1.000000 0.663276
1.000000 1.000000 0.685603
1.000000 1.000000 0.736428
0.000000 0.000000 0.407270
0.000000 0.000000 0.407492
0.000000 0.000000 0.407771
0.399987 0.000000 0.406388
0.814246 0.000000 0.409871
1.000000 0.000000 0.432841
1.000000 0.517496 0.497241
1.000000 0.855022 0.664549
0.000000 0.000000 0.405149
0.000000 0.000000 0.405411
0.035164 0.000000 0.405506
0.414891 0.000000 0.404192
0.811865 0.000000 0.407613
1.000000 0.000000 0.430155
1.000000 0.544355 0.494425
1.000000 0.857823 0.663822
0.000000 0.056278 0.401348
0.000000 0.062397 0.401557
0.089312 0.055869 0.401495
0.421310 0.000000 0.400541
0.804788 0.000000 0.403910
1.000000 0.070189 0.425117
1.000000 0.581598 0.490021
1.000000 0.862232 0.662686
0.000000 0.380548 0.378009
0.000000 0.382226 0.378308
0.000000 0.383444 0.378897
0.380434 0.380433 0.380434
0.779384 0.373493 0.384519
1.000000 0.448205 0.405087
1.000000 0.678235 0.476052
1.000000 0.874738 0.659201
0.000000 0.770941 0.293763
0.000000 0.770666 0.294447
0.000000 0.770012 0.295502
0.057772 0.766213 0.298651
0.733660 0.754686 0.309067
0.980283 0.763062 0.345050
1.000000 0.820629 0.442585
1.000000 0.904451 0.648835
0.000000 0.956142 0.000000
0.000000 0.955200 0.000000
0.025574 0.953693 0.000000
0.287667 0.949034 0.000000
0.725388 0.938053 0.032683
0.935667 0.928861 0.189528
1.000000 0.931388 0.371107
1.000000 0.950361 0.619217
0.680571 1.000000 0.336737
0.691005 1.000000 0.337179
0.707597 1.000000 0.337886
0.749560 0.999321 0.340422
0.830123 0.997983 0.348754
0.931064 0.992539 0.375536
0.999996 0.988518 0.460584
1.000000 0.989095 0.650935
0.953014 1.000000 0.652802
0.953404 1.000000 0.652937
0.954027 1.000000 0.653152
0.956059 1.000000 0.653856
0.962592 1.000000 0.656117
0.979180 1.000000 0.663354
1.000000 1.000000 0.685674
1.000000 1.000000 0.736428
0.000000 0.000000 0.758492
0.000000 0.000000 0.758571
0.000000 0.000000 0.758698
0.234729 0.000000 0.757296
0.801673 0.000000 0.752290
1.000000 0.000000 0.757000
1.000000 0.395220 0.771938
1.000000 0.843316 0.810610
0.000000 0.000000 0.757855
0.000000 0.000000 0.757933
0.000000 0.000000 0.758062
0.261213 0.000000 0.756447
0.807527 0.000000 0.751610
1.000000 0.000000 0.756340
1.000000 0.432659 0.770374
1.000000 0.846696 0.810220
0.000000 0.000000 0.756824
0.000000 0.000000 0.756903
0.000000 0.000000 0.757025
0.301625 0.000000 0.755089
0.811653 0.000000 0.750474
1.000000 0.000000 0.755058
1.000000 0.489223 0.767945
1.000000 0.851530 0.809637
0.000000 0.200828 0.750179
0.000000 0.203537 0.750188
0.000000 0.206568 0.750141
0.312015 0.196925 0.748472
0.809079 0.057849 0.744826
1.000000 0.264547 0.746930
1.000000 0.615957 0.760397
1.000000 0.865937 0.807778
0.000000 0.727879 0.712248
0.000000 0.728098 0.712333
0.000000 0.727982 0.712457
0.000000 0.725127 0.712704
0.713521 0.713520 0.713522
0.970950 0.730174 0.719294
1.000000 0.802457 0.742587
1.000000 0.898918 0.802728
0.000000 0.952694 0.664762
0.000000 0.951770 0.664931
0.000000 0.950340 0.665192
0.132695 0.945546 0.666025
0.691961 0.933876 0.669176
0.923126 0.924155 0.681775
1.000000 0.927470 0.716862
1.000000 0.948009 0.790126
0.682097 1.000000 0.551388
0.693929 1.000000 0.551723
0.710101 0.999847 0.552276
0.744426 0.998974 0.554145
0.825203 0.997120 0.560388
0.926338 0.991685 0.580935
0.997951 0.987700 0.641083
1.000000 0.988449 0.753873
0.953858 1.000000 0.653094
0.954244 1.000000 0.653227
0.954862 1.000000 0.653441
0.956881 1.000000 0.654140
0.963372 1.000000 0.656387
0.979675 1.000000 0.663613
1.000000 1.000000 0.685908
1.000000 1.000000 0.736428
0.000000 0.000000 0.960916
0.000000 0.000000 0.960924
0.000000 0.000000 0.960938
0.000000 0.000000 0.960982
0.660058 0.000000 0.953587
1.000000 0.000000 0.947917
1.000000 0.000000 0.948704
1.000000 0.789639 0.932430
0.000000 0.000000 0.960851
0.000000 0.000000 0.960859
0.000000 0.000000 0.960873
0.000000 0.000000 0.960917
0.668870 0.000000 0.953385
1.000000 0.000000 0.947846
1.000000 0.000000 0.948635
1.000000 0.795369 0.932044
0.000000 0.000000 0.960746
0.000000 0.000000 0.960754
0.000000 0.000000 0.960768
0.000000 0.000000 0.960811
0.682901 0.000000 0.953063
1.000000 0.000000 0.947731
1.000000 0.000000 0.948524
1.000000 0.803504 0.931472
0.000000 0.000000 0.960399
0.000000 0.000000 0.960407
0.000000 0.000000 0.960421
0.000000 0.000000 0.960168
0.720085 0.000000 0.952134
1.000000 0.000000 0.947342
1.000000 0.063814 0.945276
1.000000 0.828425 0.929694
0.000000 0.477639 0.945050
0.000000 0.478887 0.944994
0.000000 0.480877 0.944905
0.000000 0.484831 0.944186
0.695632 0.472824 0.939598
1.000000 0.511718 0.934272
1.000000 0.703524 0.927269
1.000000 0.878105 0.925764
0.000000 0.940684 0.911104
0.000000 0.940158 0.911058
0.000000 0.938841 0.910946
0.000000 0.934056 0.910544
0.608362 0.920438 0.909507
0.909200 0.909199 0.909200
0.999915 0.915375 0.911260
1.000000 0.941142 0.919441
0.588390 0.999316 0.893595
0.601180 0.999320 0.893584
0.621544 0.999326 0.893567
0.686035 0.999313 0.893514
0.788648 0.995134 0.893588
0.905107 0.989224 0.894555
0.985412 0.985263 0.898837
1.000000 0.986685 0.910415
0.944810 1.000000 0.834576
0.945218 1.000000 0.834630
0.945874 1.000000 0.834716
0.948015 1.000000 0.834999
0.954901 1.000000 0.835910
0.971468 1.000000 0.838903
0.996471 1.000000 0.848260
1.000000 1.000000 0.865006
0.000000 0.000000 1.000000
0.000000 0.000000 1.000000
0.000000 0.000000 1.000000
0.000000 0.000000 1.000000
0.000000 0.000000 1.000000
0.994953 0.000000 1.000000
1.000000 0.000000 1.000000
1.000000 0.273935 1.000000
0.000000 0.000000 1.000000
0.000000 0.000000 1.000000
0.000000 0.000000 1.000000
0.000000 0.000000 1.000000
0.000000 0.000000 1.000000
0.995577 0.000000 1.000000
1.000000 0.000000 1.000000
1.000000 0.273854 1.000000
0.000000 0.000000 1.000000
0.000000 0.000000 1.000000
0.000000 0.000000 1.000000
0.000000 0.000000 1.000000
0.000000 0.000000 1.000000
0.996578 0.000000 1.000000
1.000000 0.000000 1.000000
1.000000 0.273671 1.000000
0.000000 0.000000 1.000000
0.000000 0.000000 1.000000
0.000000 0.000000 1.000000
0.000000 0.000000 1.000000
0.032666 0.000000 1.000000
0.999845 0.000000 1.000000
1.000000 0.000000 1.000000
1.000000 0.273113 1.000000
0.000000 0.000000 1.000000
0.000000 0.000000 1.000000
0.000000 0.000000 1.000000
0.000000 0.000000 1.000000
0.202424 0.000000 1.000000
1.000000 0.000000 1.000000
1.000000 0.000000 1.000000
1.000000 0.629779 0.999338
0.000000 0.816728 0.999136
0.000000 0.816925 0.999110
0.000000 0.817254 0.999067
0.000000 0.818538 0.998955
0.066982 0.812556 0.997905
0.917709 0.799119 0.994290
1.000000 0.834047 0.990962
1.000000 0.906889 0.986887
0.145165 1.000000 0.981792
0.160224 1.000000 0.981730
0.189194 0.999958 0.981631
0.339613 0.999335 0.981306
0.674845 0.993589 0.980573
0.880635 0.984358 0.979877
0.979741 0.979740 0.979741
1.000000 0.982614 0.980414
0.924573 1.000000 0.973473
0.925170 1.000000 0.973474
0.926127 1.000000 0.973474
0.929253 1.000000 0.973476
0.937759 1.000000 0.973485
0.957915 1.000000 0.973553
0.987269 1.000000 0.973950
1.000000 1.000000 0.974929
0.000000 0.062951 1.000000
0.000000 0.062953 1.000000
0.000000 0.062957 1.000000
0.000000 0.062967 1.000000
0.006664 0.062293 1.000000
0.972637 0.000000 1.000000
1.000000 0.000000 1.000000
1.000000 0.340477 1.000000
0.000000 0.062952 1.000000
0.000000 0.062954 1.000000
0.000000 0.062957 1.000000
0.000000 0.062968 1.000000
0.017171 0.061177 1.000000
0.973342 0.000000 1.000000
1.000000 0.000000 1.000000
1.000000 0.340477 1.000000
0.000000 0.062953 1.000000
0.000000 0.062955 1.000000
0.000000 0.062958 1.000000
0.000000 0.062969 1.000000
0.034053 0.059384 1.000000
0.974476 0.000000 1.000000
1.000000 0.000000 1.000000
1.000000 0.340477 1.000000
0.000000 0.062957 1.000000
0.000000 0.062959 1.000000
0.000000 0.062962 1.000000
0.000000 0.062973 1.000000
0.089230 0.053523 1.000000
0.978192 0.000000 1.000000
1.000000 0.000000 1.000000
1.000000 0.340477 1.000000
0.000000 0.062969 1.000000
0.000000 0.062971 1.000000
0.000000 0.062975 1.000000
0.000000 0.062985 1.000000
0.267749 0.034562 1.000000
0.990312 0.000000 1.000000
1.000000 0.000000 1.000000
1.000000 0.339444 1.000000
0.117303 0.050542 1.000000
0.146724 0.047417 1.000000
0.193708 0.042426 1.000000
0.344996 0.026357 1.000000
0.722622 0.000000 1.000000
1.000000 0.000000 1.000000
1.000000 0.000000 1.000000
1.000000 0.332458 1.000000
0.400333 0.971486 1.000000
0.418809 0.970816 1.000000
0.439471 0.970128 1.000000
0.504053 0.968005 1.000000
0.707724 0.961346 1.000000
0.902852 0.953366 1.000000
0.992838 0.951793 1.000000
1.000000 0.962926 1.000000
0.912788 1.000000 1.000000
0.913356 1.000000 1.000000
0.914269 1.000000 1.000000
0.917254 1.000000 1.000000
0.926936 1.000000 1.000000
0.951234 1.000000 1.000000
0.984336 1.000000 0.999972
1.000000 1.000000 1.000000
